!!!!SEGMENT: pl-wn--sd-xvi-qu-273--066_gomolka-mikolaj--wszytka-ziemia-wszytki-kraje.krn
!!!cenid: 15xx:271
!!!COM: Gomółka, Mikołaj
!!!COM-rismid: pe30013343
!!!CDT: ~1535->1591/04/30
!!!CNT: Polish
!!!GTL: Melodiae na psalterz polski
!!!OTL: LXVI. Wszytka ziemia, wszytki kraje,
!!!PDT: 1580
!!!AGN: Sacred
!!!SMS-siglum: PL-Wn
!!!SMS-shelfmark: SD XVI.Qu.273
!!!SMS-shelfwork: 066 G
!!!NIFC-rismid:
!!!ONB-nifc: Melodiae na psalterz polski
**kern	**text	**kern	**text	**kern	**text	**kern	**text
*part4	*part4	*part3	*part3	*part2	*part2	*part1	*part1
*staff4	*staff4	*staff3	*staff3	*staff2	*staff2	*staff1	*staff1
*clefF4	*	*clefC3	*	*clefC3	*	*clefC1	*
*k[]	*	*k[]	*	*k[]	*	*k[]	*
*C:	*	*C:	*	*C:	*	*C:	*
*M4/2	*	*M4/2	*	*M4/2	*	*M4/2	*
*met(C|)	*	*met(C|)	*	*met(C|)	*	*met(C|)	*
*>A	*verse[1]	*>A	*verse[1]	*>A	*verse[1]	*>A	*verse[1]
=1-	=1-	=1-	=1-	=1-	=1-	=1-	=1-
1C	Wʃᴣyt-	1c	Wʃᴣyt-	1e	Wʃᴣyt-	1g	Wʃᴣyt-
2F	-ťa	2c/	-ťa	2f	-ťa	2a	-ťa
2A	ʒ́ie-	2c/	ʒ́ie-	4e	́ʒie-	2cc	́ʒie-
.	.	.	.	4f	.	.	.
=2-	=2-	=2-	=2-	=2-	=2-	=2-	=2-
2G	-miá/	2d	-miá/	2g	-miá/	2b	-miá/
2E	wʃᴣyt-	2e	wʃᴣyt-	2G	wʃᴣyt-	2g/	wʃᴣyt-
1D	-ťi_ťrá-	2f	-ťi	2F	-ťi	2a	-ťi
.	.	2d	ťrá-	2F	ťrá-	4g/	ťrá-
.	.	.	.	.	.	4f	.
=3-	=3-	=3-	=3-	=3-	=3-	=3-	=3-
2.E	-ie/	2c/	-ie/	2.G	-ie/	2e	-ie/
.	.	2c/	I	.	.	1g	I
4F	.	.	.	4A	.	.	.
2G	I	4G	.	4B	I	.	.
.	.	4A	.	4c/	.	.	.
2G	gdʒ́ie	2B	gdʒ́ie	4d	gdʒ́ie	2g	gdʒ́ie
.	.	.	.	4e	.	.	.
=4-	=4-	=4-	=4-	=4-	=4-	=4-	=4-
1F	iaʃ_né	2.c/	iaʃ-	1f	iaʃ_né	2.a	iaʃ-
.	.	4d	-né	.	.	4b	-né
2.C	ʃłoń-	4e	ʃłoń-	2g	ʃłoń-	1cc	ʃłoń-
.	.	4d	.	.	.	.	.
.	.	4e	.	2g	.	.	.
4D/	.	4f	.	.	.	.	.
=5-	=5-	=5-	=5-	=5-	=5-	=5-	=5-
4E	.	2g	.	2e	-ce	2.b	-ce
4F	.	.	.	.	.	.	.
2G	-ce	2g	-ce	2d	.	.	.
.	.	.	.	.	.	4cc	.
2D/	wʃtá-	4f	wʃtá-	2.a	wʃtá-	2dd	wʃtá-
.	.	4e	.	.	.	.	.
2E	.	4e	.	.	.	1cc	.
.	.	8dL	.	4g	.	.	.
.	.	8cJ	.	.	.	.	.
2ryy	.	2ryy	.	2ryy	.	.	.
=6-	=6-	=6-	=6-	=6-	=6-	=6-	=6-
2F	.	1d	.	4f	.	2ryy	.
.	.	.	.	4d	.	.	.
2G	.	.	.	4g	.	2b	.
.	.	.	.	4f	.	.	.
2C	-ie/	2c/	-ie/	2e	-ie/	2cc	-ie/
4c	I	4e	I	2g	I	2g/	I
4B	.	4d	.	.	.	.	.
!!LO:PB:g=original
=7-	=7-	=7-	=7-	=7-	=7-	=7-	=7-
4A	gdʒ́ie	4c/	.	4f	.	2.cc	gdʒ́ie
4G	.	4B	.	4e	.	.	.
4A	w_byʃt-	4A	gdʒ́ie	2f	gdʒ́ie	.	.
4G	.	4B	.	.	.	4b	.
4F	.	2c/	w_byʃt-	2F	w_byʃt-	4a	w_byʃt-
4E	.	.	.	.	.	4g	.
4D/	-ré	2c/	-ré	2F	-ré	4f	-ré
4C	.	.	.	.	.	4e	.
=8-	=8-	=8-	=8-	=8-	=8-	=8-	=8-
!	!	!	!	!	!	!LO:N:vis=4	!
2D	szum-	2B	szum-	2F	szum-	2d	szum-
2C	-ne	2c	-ne	4G	-ne	4.g	.
.	.	.	.	4A	.	.	.
.	.	.	.	.	.	8f	.
4G	mo-	4B	mo-	4B	mo-	4e	.
4A	.	4A	.	2c	.	8dL	.
.	.	.	.	.	.	8cJ	.
2G	.	2B	.	.	.	2d	.
.	.	.	.	4B	.	.	.
=9-	=9-	=9-	=9-	=9-	=9-	=9-	=9-
2C	-rʒe	2G	-rʒe	2c	-rʒe	2e	.
.	.	.	.	.	.	.	.
2c	Ʒá-	4c	Ʒá-	2.e	Ʒá-	2g	Ʒá-
.	.	4d	.	.	.	.	.
2A	.	4e	.	.	.	2cc	.
.	.	4c	.	4f	.	.	.
2G	-pa-	4d	-pa-	2g	-pa-	2b	-pa-
.	.	4e	.	.	.	.	.
=10-	=10-	=10-	=10-	=10-	=10-	=10-	=10-
2F	-dá-	2.f	-dá-	2c	-dá-	2a	-dá-
.	.	.	.	.	.	.	.
2D	-ią	.	.	2d	-ią	2a	-ią
.	.	4e	-ią	.	.	.	.
2G	poʒ-	2d	poʒ-	2B	poʒ-	2b	poʒ-
2C	-né	4c	-né	2e	-né	4a	-né
.	.	4B	.	.	.	4g	.
=11-	=11-	=11-	=11-	=11-	=11-	=11-	=11-
1D	ʒo-	4A	.	2.d	ʒo-	4f#X	ʒo
.	.	4G	.	.	.	2g	.
.	.	2A	ʒo-	.	.	.	.
.	.	.	.	4c	.	4f#	.
!!LO:N:vis=00
!'ogonek po lewej stronie'	!	!'ogonek po lewej stronie'	!	!	!	!	!
1GG	-rʒe	1G	-rʒe	1B	-rʒe	1g	-rʒe
=-	=-	=-	=-	=-	=-	=-	=-
*-	*-	*-	*-	*-	*-	*-	*-
!!!RDF**kern: l = terminal long
!!!system-decoration: s1,s2,s3,s4
!!!ENC:Anna Matuszewska
!!!END:2020-02-13
!!!URL-scan: https://polona.pl/item/melodiae-na-psalterz-polski,Nzk3MTM4ODQ/164 Scan on Polona
!!!IIIF: https://polona.pl/iiif/item/Nzk3MTM4ODQ/manifest.json
